movel( p[-0.610000, 0.045000, 0.500000,1.300000, -2.900000, 0.040000], a=0.1, v=0.500000 )
movel( p[-0.610000, 0.045000, 0.500000,1.300000, -2.900000, 0.040000], a=0.1, v=0.500000 )
movel( p[-0.610000, 0.060000, 0.500000,1.300000, -2.900000, 0.040000], a=0.1, v=0.500000 )
movel( p[-0.625000, 0.045000, 0.500000,1.300000, -2.900000, 0.040000], a=0.1, v=0.500000 )
movel( p[-0.610000, 0.075000, 0.500000,1.300000, -2.900000, 0.040000], a=0.1, v=0.500000 )
movel( p[-0.610000, 0.045000, 0.500000,1.300000, -2.900000, 0.040000], a=0.1, v=0.500000 )
movel( p[-0.610000, 0.090000, 0.500000,1.300000, -2.900000, 0.040000], a=0.1, v=0.500000 )
movel( p[-0.595000, 0.045000, 0.500000,1.300000, -2.900000, 0.040000], a=0.1, v=0.500000 )
movel( p[-0.610000, 0.105000, 0.500000,1.300000, -2.900000, 0.040000], a=0.1, v=0.500000 )
movel( p[-0.580000, 0.045000, 0.500000,1.300000, -2.900000, 0.040000], a=0.1, v=0.500000 )
movel( p[-0.610000, 0.120000, 0.500000,1.300000, -2.900000, 0.040000], a=0.1, v=0.500000 )
movel( p[-0.610000, 0.135000, 0.500000,1.300000, -2.900000, 0.040000], a=0.1, v=0.500000 )
movel( p[-0.610000, 0.150000, 0.500000,1.300000, -2.900000, 0.040000], a=0.1, v=0.500000 )
movel( p[-0.565000, 0.045000, 0.500000,1.300000, -2.900000, 0.040000], a=0.1, v=0.500000 )
movel( p[-0.610000, 0.165000, 0.500000,1.300000, -2.900000, 0.040000], a=0.1, v=0.500000 )
movel( p[-0.550000, 0.045000, 0.500000,1.300000, -2.900000, 0.040000], a=0.1, v=0.500000 )
movel( p[-0.610000, 0.180000, 0.500000,1.300000, -2.900000, 0.040000], a=0.1, v=0.500000 )
movel( p[-0.535000, 0.045000, 0.500000,1.300000, -2.900000, 0.040000], a=0.1, v=0.500000 )
movel( p[-0.610000, 0.195000, 0.500000,1.300000, -2.900000, 0.040000], a=0.1, v=0.500000 )
movel( p[-0.550000, 0.045000, 0.500000,1.300000, -2.900000, 0.040000], a=0.1, v=0.500000 )
movel( p[-0.610000, 0.210000, 0.500000,1.300000, -2.900000, 0.040000], a=0.1, v=0.500000 )
movel( p[-0.565000, 0.045000, 0.500000,1.300000, -2.900000, 0.040000], a=0.1, v=0.500000 )
movel( p[-0.610000, 0.225000, 0.500000,1.300000, -2.900000, 0.040000], a=0.1, v=0.500000 )
