movel( p[-0.595000, 0.030000, 0.500000,1.300000, -2.900000, 0.040000], a=0.1, v=0.500000 )
movel( p[-0.595000, 0.030000, 0.500000,1.300000, -2.900000, 0.040000], a=0.1, v=0.500000 )
movel( p[-0.595000, 0.030000, 0.500000,1.300000, -2.900000, 0.040000], a=0.1, v=0.500000 )
movel( p[-0.595000, 0.030000, 0.500000,1.300000, -2.900000, 0.040000], a=0.1, v=0.500000 )
movel( p[-0.595000, 0.030000, 0.500000,1.300000, -2.900000, 0.040000], a=0.1, v=0.500000 )
movel( p[-0.595000, 0.030000, 0.500000,1.300000, -2.900000, 0.040000], a=0.1, v=0.500000 )
movel( p[-0.595000, 0.030000, 0.500000,1.300000, -2.900000, 0.040000], a=0.1, v=0.500000 )
movel( p[-0.595000, 0.030000, 0.500000,1.300000, -2.900000, 0.040000], a=0.1, v=0.500000 )
movel( p[-0.595000, 0.030000, 0.500000,1.300000, -2.900000, 0.040000], a=0.1, v=0.500000 )
movel( p[-0.595000, 0.030000, 0.500000,1.300000, -2.900000, 0.040000], a=0.1, v=0.500000 )
movel( p[-0.595000, 0.030000, 0.500000,1.300000, -2.900000, 0.040000], a=0.1, v=0.500000 )
movel( p[-0.595000, 0.030000, 0.500000,1.300000, -2.900000, 0.040000], a=0.1, v=0.500000 )
movel( p[-0.595000, 0.030000, 0.500000,1.300000, -2.900000, 0.040000], a=0.1, v=0.500000 )
