movel( p[-0.610000, 0.045000, 0.500000,1.300000, -2.900000, 0.040000], a=0.1, v=0.500000 )
movel( p[-0.610000, 0.050000, 0.500000,1.300000, -2.900000, 0.040000], a=0.1, v=0.500000 )
movel( p[-0.610000, 0.050000, 0.500000,1.300000, -2.900000, 0.040000], a=0.1, v=0.500000 )
movel( p[-0.610000, 0.045000, 0.500000,1.300000, -2.900000, 0.040000], a=0.1, v=0.500000 )
movel( p[-0.610000, 0.050000, 0.500000,1.300000, -2.900000, 0.040000], a=0.1, v=0.500000 )
movel( p[-0.595000, 0.045000, 0.500000,1.300000, -2.900000, 0.040000], a=0.1, v=0.500000 )
movel( p[-0.610000, 0.050000, 0.500000,1.300000, -2.900000, 0.040000], a=0.1, v=0.500000 )
movel( p[-0.580000, 0.045000, 0.500000,1.300000, -2.900000, 0.040000], a=0.1, v=0.500000 )
movel( p[-0.610000, 0.050000, 0.500000,1.300000, -2.900000, 0.040000], a=0.1, v=0.500000 )
movel( p[-0.565000, 0.045000, 0.500000,1.300000, -2.900000, 0.040000], a=0.1, v=0.500000 )
movel( p[-0.610000, 0.050000, 0.500000,1.300000, -2.900000, 0.040000], a=0.1, v=0.500000 )
movel( p[-0.550000, 0.045000, 0.500000,1.300000, -2.900000, 0.040000], a=0.1, v=0.500000 )
movel( p[-0.610000, 0.050000, 0.500000,1.300000, -2.900000, 0.040000], a=0.1, v=0.500000 )
movel( p[-0.535000, 0.045000, 0.500000,1.300000, -2.900000, 0.040000], a=0.1, v=0.500000 )
movel( p[-0.610000, 0.050000, 0.500000,1.300000, -2.900000, 0.040000], a=0.1, v=0.500000 )
movel( p[-0.520000, 0.045000, 0.500000,1.300000, -2.900000, 0.040000], a=0.1, v=0.500000 )
movel( p[-0.610000, 0.050000, 0.500000,1.300000, -2.900000, 0.040000], a=0.1, v=0.500000 )
