movel( p[-0.605000, 0.050000, 0.500000,1.300000, -2.900000, 0.040000], a=0.1, v=0.500000 )
movel( p[-0.605000, 0.045000, 0.500000,1.300000, -2.900000, 0.040000], a=0.1, v=0.500000 )
movel( p[-0.605000, 0.050000, 0.500000,1.300000, -2.900000, 0.040000], a=0.1, v=0.500000 )
movel( p[-0.590000, 0.045000, 0.500000,1.300000, -2.900000, 0.040000], a=0.1, v=0.500000 )
movel( p[-0.605000, 0.050000, 0.500000,1.300000, -2.900000, 0.040000], a=0.1, v=0.500000 )
movel( p[-0.575000, 0.045000, 0.500000,1.300000, -2.900000, 0.040000], a=0.1, v=0.500000 )
movel( p[-0.605000, 0.050000, 0.500000,1.300000, -2.900000, 0.040000], a=0.1, v=0.500000 )
movel( p[-0.560000, 0.045000, 0.500000,1.300000, -2.900000, 0.040000], a=0.1, v=0.500000 )
movel( p[-0.605000, 0.050000, 0.500000,1.300000, -2.900000, 0.040000], a=0.1, v=0.500000 )
movel( p[-0.545000, 0.045000, 0.500000,1.300000, -2.900000, 0.040000], a=0.1, v=0.500000 )
movel( p[-0.605000, 0.050000, 0.500000,1.300000, -2.900000, 0.040000], a=0.1, v=0.500000 )
