movel( p[-0.610000, 0.045000, 0.400000,1.300000, -2.900000, 0.040000], a=0.1, v=0.500000 )
movel( p[-0.610000, 0.040000, 0.400000,1.300000, -2.900000, 0.040000], a=0.1, v=0.500000 )
movel( p[-0.610000, 0.035000, 0.400000,1.300000, -2.900000, 0.040000], a=0.1, v=0.500000 )
movel( p[-0.610000, 0.030000, 0.400000,1.300000, -2.900000, 0.040000], a=0.1, v=0.500000 )
movel( p[-0.610000, 0.035000, 0.400000,1.300000, -2.900000, 0.040000], a=0.1, v=0.500000 )
movel( p[-0.610000, 0.040000, 0.400000,1.300000, -2.900000, 0.040000], a=0.1, v=0.500000 )
movel( p[-0.610000, 0.045000, 0.400000,1.300000, -2.900000, 0.040000], a=0.1, v=0.500000 )
movel( p[-0.610000, 0.050000, 0.400000,1.300000, -2.900000, 0.040000], a=0.1, v=0.500000 )
movel( p[-0.610000, 0.055000, 0.400000,1.300000, -2.900000, 0.040000], a=0.1, v=0.500000 )
movel( p[-0.610000, 0.050000, 0.400000,1.300000, -2.900000, 0.040000], a=0.1, v=0.500000 )
movel( p[-0.610000, 0.045000, 0.400000,1.300000, -2.900000, 0.040000], a=0.1, v=0.500000 )
movel( p[-0.610000, 0.040000, 0.400000,1.300000, -2.900000, 0.040000], a=0.1, v=0.500000 )
movel( p[-0.610000, 0.035000, 0.400000,1.300000, -2.900000, 0.040000], a=0.1, v=0.500000 )
movel( p[-0.610000, 0.030000, 0.400000,1.300000, -2.900000, 0.040000], a=0.1, v=0.500000 )
movel( p[-0.610000, 0.035000, 0.400000,1.300000, -2.900000, 0.040000], a=0.1, v=0.500000 )
movel( p[-0.610000, 0.040000, 0.400000,1.300000, -2.900000, 0.040000], a=0.1, v=0.500000 )
movel( p[-0.610000, 0.045000, 0.400000,1.300000, -2.900000, 0.040000], a=0.1, v=0.500000 )
movel( p[-0.610000, 0.050000, 0.400000,1.300000, -2.900000, 0.040000], a=0.1, v=0.500000 )
movel( p[-0.610000, 0.055000, 0.400000,1.300000, -2.900000, 0.040000], a=0.1, v=0.500000 )
movel( p[-0.610000, 0.050000, 0.400000,1.300000, -2.900000, 0.040000], a=0.1, v=0.500000 )
movel( p[-0.610000, 0.045000, 0.400000,1.300000, -2.900000, 0.040000], a=0.1, v=0.500000 )
movel( p[-0.610000, 0.050000, 0.400000,1.300000, -2.900000, 0.040000], a=0.1, v=0.500000 )
movel( p[-0.610000, 0.055000, 0.400000,1.300000, -2.900000, 0.040000], a=0.1, v=0.500000 )
movel( p[-0.610000, 0.060000, 0.400000,1.300000, -2.900000, 0.040000], a=0.1, v=0.500000 )
movel( p[-0.610000, 0.065000, 0.400000,1.300000, -2.900000, 0.040000], a=0.1, v=0.500000 )
movel( p[-0.610000, 0.070000, 0.400000,1.300000, -2.900000, 0.040000], a=0.1, v=0.500000 )
movel( p[-0.610000, 0.075000, 0.400000,1.300000, -2.900000, 0.040000], a=0.1, v=0.500000 )
movel( p[-0.610000, 0.080000, 0.400000,1.300000, -2.900000, 0.040000], a=0.1, v=0.500000 )
movel( p[-0.610000, 0.085000, 0.400000,1.300000, -2.900000, 0.040000], a=0.1, v=0.500000 )
