movel( p[-0.610000, 0.045000, 0.400000,1.300000, -2.900000, 0.040000], a=0.1, v=0.500000 )
movel( p[-0.610000, 0.055000, 0.400000,1.300000, -2.900000, 0.040000], a=0.1, v=0.500000 )
movel( p[-0.610000, 0.065000, 0.400000,1.300000, -2.900000, 0.040000], a=0.1, v=0.500000 )
movel( p[-0.610000, 0.075000, 0.400000,1.300000, -2.900000, 0.040000], a=0.1, v=0.500000 )
movel( p[-0.600000, 0.075000, 0.400000,1.300000, -2.900000, 0.040000], a=0.1, v=0.500000 )
movel( p[-0.590000, 0.075000, 0.400000,1.300000, -2.900000, 0.040000], a=0.1, v=0.500000 )
movel( p[-0.580000, 0.075000, 0.400000,1.300000, -2.900000, 0.040000], a=0.1, v=0.500000 )
movel( p[-0.580000, 0.065000, 0.400000,1.300000, -2.900000, 0.040000], a=0.1, v=0.500000 )
movel( p[-0.570000, 0.065000, 0.400000,1.300000, -2.900000, 0.040000], a=0.1, v=0.500000 )
movel( p[-0.570000, 0.055000, 0.400000,1.300000, -2.900000, 0.040000], a=0.1, v=0.500000 )
movel( p[-0.560000, 0.055000, 0.400000,1.300000, -2.900000, 0.040000], a=0.1, v=0.500000 )
movel( p[-0.560000, 0.045000, 0.400000,1.300000, -2.900000, 0.040000], a=0.1, v=0.500000 )
movel( p[-0.550000, 0.045000, 0.400000,1.300000, -2.900000, 0.040000], a=0.1, v=0.500000 )
movel( p[-0.550000, 0.035000, 0.400000,1.300000, -2.900000, 0.040000], a=0.1, v=0.500000 )
movel( p[-0.540000, 0.035000, 0.400000,1.300000, -2.900000, 0.040000], a=0.1, v=0.500000 )
movel( p[-0.540000, 0.025000, 0.400000,1.300000, -2.900000, 0.040000], a=0.1, v=0.500000 )
movel( p[-0.530000, 0.025000, 0.400000,1.300000, -2.900000, 0.040000], a=0.1, v=0.500000 )
movel( p[-0.530000, 0.015000, 0.400000,1.300000, -2.900000, 0.040000], a=0.1, v=0.500000 )
movel( p[-0.520000, 0.015000, 0.400000,1.300000, -2.900000, 0.040000], a=0.1, v=0.500000 )
movel( p[-0.520000, 0.005000, 0.400000,1.300000, -2.900000, 0.040000], a=0.1, v=0.500000 )
movel( p[-0.510000, 0.005000, 0.400000,1.300000, -2.900000, 0.040000], a=0.1, v=0.500000 )
movel( p[-0.510000, -0.005000, 0.400000,1.300000, -2.900000, 0.040000], a=0.1, v=0.500000 )
movel( p[-0.500000, -0.005000, 0.400000,1.300000, -2.900000, 0.040000], a=0.1, v=0.500000 )
movel( p[-0.500000, -0.015000, 0.400000,1.300000, -2.900000, 0.040000], a=0.1, v=0.500000 )
movel( p[-0.490000, -0.015000, 0.400000,1.300000, -2.900000, 0.040000], a=0.1, v=0.500000 )
movel( p[-0.490000, -0.025000, 0.400000,1.300000, -2.900000, 0.040000], a=0.1, v=0.500000 )
movel( p[-0.480000, -0.025000, 0.400000,1.300000, -2.900000, 0.040000], a=0.1, v=0.500000 )
movel( p[-0.480000, -0.035000, 0.400000,1.300000, -2.900000, 0.040000], a=0.1, v=0.500000 )
movel( p[-0.490000, -0.035000, 0.400000,1.300000, -2.900000, 0.040000], a=0.1, v=0.500000 )
movel( p[-0.500000, -0.035000, 0.400000,1.300000, -2.900000, 0.040000], a=0.1, v=0.500000 )
movel( p[-0.510000, -0.035000, 0.400000,1.300000, -2.900000, 0.040000], a=0.1, v=0.500000 )
movel( p[-0.520000, -0.035000, 0.400000,1.300000, -2.900000, 0.040000], a=0.1, v=0.500000 )
movel( p[-0.530000, -0.035000, 0.400000,1.300000, -2.900000, 0.040000], a=0.1, v=0.500000 )
movel( p[-0.540000, -0.035000, 0.400000,1.300000, -2.900000, 0.040000], a=0.1, v=0.500000 )
movel( p[-0.550000, -0.035000, 0.400000,1.300000, -2.900000, 0.040000], a=0.1, v=0.500000 )
movel( p[-0.560000, -0.035000, 0.400000,1.300000, -2.900000, 0.040000], a=0.1, v=0.500000 )
movel( p[-0.570000, -0.035000, 0.400000,1.300000, -2.900000, 0.040000], a=0.1, v=0.500000 )
movel( p[-0.570000, -0.025000, 0.400000,1.300000, -2.900000, 0.040000], a=0.1, v=0.500000 )
movel( p[-0.570000, -0.015000, 0.400000,1.300000, -2.900000, 0.040000], a=0.1, v=0.500000 )
movel( p[-0.570000, -0.005000, 0.400000,1.300000, -2.900000, 0.040000], a=0.1, v=0.500000 )
movel( p[-0.560000, -0.005000, 0.400000,1.300000, -2.900000, 0.040000], a=0.1, v=0.500000 )
movel( p[-0.560000, 0.005000, 0.400000,1.300000, -2.900000, 0.040000], a=0.1, v=0.500000 )
movel( p[-0.550000, 0.005000, 0.400000,1.300000, -2.900000, 0.040000], a=0.1, v=0.500000 )
movel( p[-0.550000, 0.015000, 0.400000,1.300000, -2.900000, 0.040000], a=0.1, v=0.500000 )
movel( p[-0.540000, 0.015000, 0.400000,1.300000, -2.900000, 0.040000], a=0.1, v=0.500000 )
movel( p[-0.540000, 0.025000, 0.400000,1.300000, -2.900000, 0.040000], a=0.1, v=0.500000 )
movel( p[-0.530000, 0.025000, 0.400000,1.300000, -2.900000, 0.040000], a=0.1, v=0.500000 )
movel( p[-0.530000, 0.035000, 0.400000,1.300000, -2.900000, 0.040000], a=0.1, v=0.500000 )
movel( p[-0.520000, 0.035000, 0.400000,1.300000, -2.900000, 0.040000], a=0.1, v=0.500000 )
movel( p[-0.520000, 0.045000, 0.400000,1.300000, -2.900000, 0.040000], a=0.1, v=0.500000 )
movel( p[-0.510000, 0.045000, 0.400000,1.300000, -2.900000, 0.040000], a=0.1, v=0.500000 )
movel( p[-0.510000, 0.035000, 0.400000,1.300000, -2.900000, 0.040000], a=0.1, v=0.500000 )
movel( p[-0.500000, 0.035000, 0.400000,1.300000, -2.900000, 0.040000], a=0.1, v=0.500000 )
movel( p[-0.500000, 0.025000, 0.400000,1.300000, -2.900000, 0.040000], a=0.1, v=0.500000 )
movel( p[-0.490000, 0.025000, 0.400000,1.300000, -2.900000, 0.040000], a=0.1, v=0.500000 )
movel( p[-0.490000, 0.015000, 0.400000,1.300000, -2.900000, 0.040000], a=0.1, v=0.500000 )
movel( p[-0.480000, 0.015000, 0.400000,1.300000, -2.900000, 0.040000], a=0.1, v=0.500000 )
movel( p[-0.480000, 0.005000, 0.400000,1.300000, -2.900000, 0.040000], a=0.1, v=0.500000 )
movel( p[-0.470000, 0.005000, 0.400000,1.300000, -2.900000, 0.040000], a=0.1, v=0.500000 )
movel( p[-0.470000, -0.005000, 0.400000,1.300000, -2.900000, 0.040000], a=0.1, v=0.500000 )
movel( p[-0.460000, -0.005000, 0.400000,1.300000, -2.900000, 0.040000], a=0.1, v=0.500000 )
movel( p[-0.460000, -0.015000, 0.400000,1.300000, -2.900000, 0.040000], a=0.1, v=0.500000 )
movel( p[-0.450000, -0.015000, 0.400000,1.300000, -2.900000, 0.040000], a=0.1, v=0.500000 )
movel( p[-0.450000, -0.025000, 0.400000,1.300000, -2.900000, 0.040000], a=0.1, v=0.500000 )
movel( p[-0.440000, -0.025000, 0.400000,1.300000, -2.900000, 0.040000], a=0.1, v=0.500000 )
movel( p[-0.440000, -0.035000, 0.400000,1.300000, -2.900000, 0.040000], a=0.1, v=0.500000 )
movel( p[-0.440000, -0.045000, 0.400000,1.300000, -2.900000, 0.040000], a=0.1, v=0.500000 )
movel( p[-0.440000, -0.055000, 0.400000,1.300000, -2.900000, 0.040000], a=0.1, v=0.500000 )
movel( p[-0.450000, -0.055000, 0.400000,1.300000, -2.900000, 0.040000], a=0.1, v=0.500000 )
movel( p[-0.450000, -0.065000, 0.400000,1.300000, -2.900000, 0.040000], a=0.1, v=0.500000 )
movel( p[-0.460000, -0.065000, 0.400000,1.300000, -2.900000, 0.040000], a=0.1, v=0.500000 )
movel( p[-0.460000, -0.055000, 0.400000,1.300000, -2.900000, 0.040000], a=0.1, v=0.500000 )
movel( p[-0.470000, -0.055000, 0.400000,1.300000, -2.900000, 0.040000], a=0.1, v=0.500000 )
movel( p[-0.470000, -0.045000, 0.400000,1.300000, -2.900000, 0.040000], a=0.1, v=0.500000 )
movel( p[-0.480000, -0.045000, 0.400000,1.300000, -2.900000, 0.040000], a=0.1, v=0.500000 )
movel( p[-0.480000, -0.035000, 0.400000,1.300000, -2.900000, 0.040000], a=0.1, v=0.500000 )
movel( p[-0.490000, -0.035000, 0.400000,1.300000, -2.900000, 0.040000], a=0.1, v=0.500000 )
movel( p[-0.490000, -0.025000, 0.400000,1.300000, -2.900000, 0.040000], a=0.1, v=0.500000 )
movel( p[-0.500000, -0.025000, 0.400000,1.300000, -2.900000, 0.040000], a=0.1, v=0.500000 )
movel( p[-0.500000, -0.015000, 0.400000,1.300000, -2.900000, 0.040000], a=0.1, v=0.500000 )
movel( p[-0.510000, -0.015000, 0.400000,1.300000, -2.900000, 0.040000], a=0.1, v=0.500000 )
movel( p[-0.510000, -0.005000, 0.400000,1.300000, -2.900000, 0.040000], a=0.1, v=0.500000 )
movel( p[-0.520000, -0.005000, 0.400000,1.300000, -2.900000, 0.040000], a=0.1, v=0.500000 )
movel( p[-0.520000, 0.005000, 0.400000,1.300000, -2.900000, 0.040000], a=0.1, v=0.500000 )
movel( p[-0.530000, 0.005000, 0.400000,1.300000, -2.900000, 0.040000], a=0.1, v=0.500000 )
movel( p[-0.530000, 0.015000, 0.400000,1.300000, -2.900000, 0.040000], a=0.1, v=0.500000 )
movel( p[-0.540000, 0.015000, 0.400000,1.300000, -2.900000, 0.040000], a=0.1, v=0.500000 )
movel( p[-0.540000, 0.025000, 0.400000,1.300000, -2.900000, 0.040000], a=0.1, v=0.500000 )
movel( p[-0.550000, 0.025000, 0.400000,1.300000, -2.900000, 0.040000], a=0.1, v=0.500000 )
movel( p[-0.550000, 0.035000, 0.400000,1.300000, -2.900000, 0.040000], a=0.1, v=0.500000 )
movel( p[-0.560000, 0.035000, 0.400000,1.300000, -2.900000, 0.040000], a=0.1, v=0.500000 )
movel( p[-0.560000, 0.045000, 0.400000,1.300000, -2.900000, 0.040000], a=0.1, v=0.500000 )
movel( p[-0.560000, 0.055000, 0.400000,1.300000, -2.900000, 0.040000], a=0.1, v=0.500000 )
movel( p[-0.560000, 0.065000, 0.400000,1.300000, -2.900000, 0.040000], a=0.1, v=0.500000 )
movel( p[-0.560000, 0.075000, 0.400000,1.300000, -2.900000, 0.040000], a=0.1, v=0.500000 )
movel( p[-0.550000, 0.075000, 0.400000,1.300000, -2.900000, 0.040000], a=0.1, v=0.500000 )
movel( p[-0.550000, 0.065000, 0.400000,1.300000, -2.900000, 0.040000], a=0.1, v=0.500000 )
movel( p[-0.540000, 0.065000, 0.400000,1.300000, -2.900000, 0.040000], a=0.1, v=0.500000 )
movel( p[-0.540000, 0.055000, 0.400000,1.300000, -2.900000, 0.040000], a=0.1, v=0.500000 )
movel( p[-0.530000, 0.055000, 0.400000,1.300000, -2.900000, 0.040000], a=0.1, v=0.500000 )
movel( p[-0.530000, 0.045000, 0.400000,1.300000, -2.900000, 0.040000], a=0.1, v=0.500000 )
movel( p[-0.520000, 0.045000, 0.400000,1.300000, -2.900000, 0.040000], a=0.1, v=0.500000 )
movel( p[-0.520000, 0.035000, 0.400000,1.300000, -2.900000, 0.040000], a=0.1, v=0.500000 )
movel( p[-0.510000, 0.035000, 0.400000,1.300000, -2.900000, 0.040000], a=0.1, v=0.500000 )
movel( p[-0.510000, 0.025000, 0.400000,1.300000, -2.900000, 0.040000], a=0.1, v=0.500000 )
movel( p[-0.500000, 0.025000, 0.400000,1.300000, -2.900000, 0.040000], a=0.1, v=0.500000 )
movel( p[-0.500000, 0.015000, 0.400000,1.300000, -2.900000, 0.040000], a=0.1, v=0.500000 )
movel( p[-0.490000, 0.015000, 0.400000,1.300000, -2.900000, 0.040000], a=0.1, v=0.500000 )
movel( p[-0.490000, 0.005000, 0.400000,1.300000, -2.900000, 0.040000], a=0.1, v=0.500000 )
movel( p[-0.480000, 0.005000, 0.400000,1.300000, -2.900000, 0.040000], a=0.1, v=0.500000 )
movel( p[-0.480000, -0.005000, 0.400000,1.300000, -2.900000, 0.040000], a=0.1, v=0.500000 )
movel( p[-0.470000, -0.005000, 0.400000,1.300000, -2.900000, 0.040000], a=0.1, v=0.500000 )
movel( p[-0.470000, -0.015000, 0.400000,1.300000, -2.900000, 0.040000], a=0.1, v=0.500000 )
movel( p[-0.460000, -0.015000, 0.400000,1.300000, -2.900000, 0.040000], a=0.1, v=0.500000 )
movel( p[-0.460000, -0.025000, 0.400000,1.300000, -2.900000, 0.040000], a=0.1, v=0.500000 )
movel( p[-0.450000, -0.025000, 0.400000,1.300000, -2.900000, 0.040000], a=0.1, v=0.500000 )
movel( p[-0.450000, -0.035000, 0.400000,1.300000, -2.900000, 0.040000], a=0.1, v=0.500000 )
movel( p[-0.440000, -0.035000, 0.400000,1.300000, -2.900000, 0.040000], a=0.1, v=0.500000 )
movel( p[-0.450000, -0.035000, 0.400000,1.300000, -2.900000, 0.040000], a=0.1, v=0.500000 )
movel( p[-0.450000, -0.025000, 0.400000,1.300000, -2.900000, 0.040000], a=0.1, v=0.500000 )
movel( p[-0.460000, -0.025000, 0.400000,1.300000, -2.900000, 0.040000], a=0.1, v=0.500000 )
movel( p[-0.460000, -0.015000, 0.400000,1.300000, -2.900000, 0.040000], a=0.1, v=0.500000 )
movel( p[-0.470000, -0.015000, 0.400000,1.300000, -2.900000, 0.040000], a=0.1, v=0.500000 )
movel( p[-0.470000, -0.005000, 0.400000,1.300000, -2.900000, 0.040000], a=0.1, v=0.500000 )
movel( p[-0.470000, 0.005000, 0.400000,1.300000, -2.900000, 0.040000], a=0.1, v=0.500000 )
movel( p[-0.470000, 0.015000, 0.400000,1.300000, -2.900000, 0.040000], a=0.1, v=0.500000 )
movel( p[-0.470000, 0.025000, 0.400000,1.300000, -2.900000, 0.040000], a=0.1, v=0.500000 )
movel( p[-0.470000, 0.035000, 0.400000,1.300000, -2.900000, 0.040000], a=0.1, v=0.500000 )
movel( p[-0.470000, 0.045000, 0.400000,1.300000, -2.900000, 0.040000], a=0.1, v=0.500000 )
movel( p[-0.470000, 0.055000, 0.400000,1.300000, -2.900000, 0.040000], a=0.1, v=0.500000 )
movel( p[-0.470000, 0.045000, 0.400000,1.300000, -2.900000, 0.040000], a=0.1, v=0.500000 )
movel( p[-0.470000, 0.035000, 0.400000,1.300000, -2.900000, 0.040000], a=0.1, v=0.500000 )
movel( p[-0.480000, 0.035000, 0.400000,1.300000, -2.900000, 0.040000], a=0.1, v=0.500000 )
movel( p[-0.480000, 0.025000, 0.400000,1.300000, -2.900000, 0.040000], a=0.1, v=0.500000 )
movel( p[-0.490000, 0.025000, 0.400000,1.300000, -2.900000, 0.040000], a=0.1, v=0.500000 )
movel( p[-0.490000, 0.015000, 0.400000,1.300000, -2.900000, 0.040000], a=0.1, v=0.500000 )
movel( p[-0.500000, 0.015000, 0.400000,1.300000, -2.900000, 0.040000], a=0.1, v=0.500000 )
movel( p[-0.500000, 0.005000, 0.400000,1.300000, -2.900000, 0.040000], a=0.1, v=0.500000 )
movel( p[-0.510000, 0.005000, 0.400000,1.300000, -2.900000, 0.040000], a=0.1, v=0.500000 )
movel( p[-0.510000, -0.005000, 0.400000,1.300000, -2.900000, 0.040000], a=0.1, v=0.500000 )
movel( p[-0.520000, -0.005000, 0.400000,1.300000, -2.900000, 0.040000], a=0.1, v=0.500000 )
movel( p[-0.520000, -0.015000, 0.400000,1.300000, -2.900000, 0.040000], a=0.1, v=0.500000 )
movel( p[-0.530000, -0.015000, 0.400000,1.300000, -2.900000, 0.040000], a=0.1, v=0.500000 )
movel( p[-0.530000, -0.025000, 0.400000,1.300000, -2.900000, 0.040000], a=0.1, v=0.500000 )
movel( p[-0.540000, -0.025000, 0.400000,1.300000, -2.900000, 0.040000], a=0.1, v=0.500000 )
movel( p[-0.540000, -0.035000, 0.400000,1.300000, -2.900000, 0.040000], a=0.1, v=0.500000 )
movel( p[-0.550000, -0.035000, 0.400000,1.300000, -2.900000, 0.040000], a=0.1, v=0.500000 )
movel( p[-0.550000, -0.045000, 0.400000,1.300000, -2.900000, 0.040000], a=0.1, v=0.500000 )
movel( p[-0.560000, -0.045000, 0.400000,1.300000, -2.900000, 0.040000], a=0.1, v=0.500000 )
movel( p[-0.560000, -0.055000, 0.400000,1.300000, -2.900000, 0.040000], a=0.1, v=0.500000 )
movel( p[-0.570000, -0.055000, 0.400000,1.300000, -2.900000, 0.040000], a=0.1, v=0.500000 )
movel( p[-0.570000, -0.065000, 0.400000,1.300000, -2.900000, 0.040000], a=0.1, v=0.500000 )
movel( p[-0.570000, -0.075000, 0.400000,1.300000, -2.900000, 0.040000], a=0.1, v=0.500000 )
movel( p[-0.570000, -0.085000, 0.400000,1.300000, -2.900000, 0.040000], a=0.1, v=0.500000 )
movel( p[-0.560000, -0.085000, 0.400000,1.300000, -2.900000, 0.040000], a=0.1, v=0.500000 )
movel( p[-0.560000, -0.095000, 0.400000,1.300000, -2.900000, 0.040000], a=0.1, v=0.500000 )
movel( p[-0.550000, -0.095000, 0.400000,1.300000, -2.900000, 0.040000], a=0.1, v=0.500000 )
movel( p[-0.550000, -0.105000, 0.400000,1.300000, -2.900000, 0.040000], a=0.1, v=0.500000 )
movel( p[-0.540000, -0.105000, 0.400000,1.300000, -2.900000, 0.040000], a=0.1, v=0.500000 )
movel( p[-0.540000, -0.115000, 0.400000,1.300000, -2.900000, 0.040000], a=0.1, v=0.500000 )
movel( p[-0.530000, -0.115000, 0.400000,1.300000, -2.900000, 0.040000], a=0.1, v=0.500000 )
movel( p[-0.530000, -0.125000, 0.400000,1.300000, -2.900000, 0.040000], a=0.1, v=0.500000 )
movel( p[-0.520000, -0.125000, 0.400000,1.300000, -2.900000, 0.040000], a=0.1, v=0.500000 )
movel( p[-0.520000, -0.115000, 0.400000,1.300000, -2.900000, 0.040000], a=0.1, v=0.500000 )
movel( p[-0.530000, -0.115000, 0.400000,1.300000, -2.900000, 0.040000], a=0.1, v=0.500000 )
movel( p[-0.530000, -0.105000, 0.400000,1.300000, -2.900000, 0.040000], a=0.1, v=0.500000 )
movel( p[-0.540000, -0.105000, 0.400000,1.300000, -2.900000, 0.040000], a=0.1, v=0.500000 )
movel( p[-0.540000, -0.095000, 0.400000,1.300000, -2.900000, 0.040000], a=0.1, v=0.500000 )
movel( p[-0.550000, -0.095000, 0.400000,1.300000, -2.900000, 0.040000], a=0.1, v=0.500000 )
movel( p[-0.550000, -0.085000, 0.400000,1.300000, -2.900000, 0.040000], a=0.1, v=0.500000 )
movel( p[-0.560000, -0.085000, 0.400000,1.300000, -2.900000, 0.040000], a=0.1, v=0.500000 )
movel( p[-0.560000, -0.075000, 0.400000,1.300000, -2.900000, 0.040000], a=0.1, v=0.500000 )
movel( p[-0.570000, -0.075000, 0.400000,1.300000, -2.900000, 0.040000], a=0.1, v=0.500000 )
movel( p[-0.570000, -0.065000, 0.400000,1.300000, -2.900000, 0.040000], a=0.1, v=0.500000 )
movel( p[-0.570000, -0.055000, 0.400000,1.300000, -2.900000, 0.040000], a=0.1, v=0.500000 )
movel( p[-0.570000, -0.045000, 0.400000,1.300000, -2.900000, 0.040000], a=0.1, v=0.500000 )
movel( p[-0.560000, -0.045000, 0.400000,1.300000, -2.900000, 0.040000], a=0.1, v=0.500000 )
movel( p[-0.560000, -0.035000, 0.400000,1.300000, -2.900000, 0.040000], a=0.1, v=0.500000 )
movel( p[-0.550000, -0.035000, 0.400000,1.300000, -2.900000, 0.040000], a=0.1, v=0.500000 )
movel( p[-0.550000, -0.045000, 0.400000,1.300000, -2.900000, 0.040000], a=0.1, v=0.500000 )
movel( p[-0.540000, -0.045000, 0.400000,1.300000, -2.900000, 0.040000], a=0.1, v=0.500000 )
movel( p[-0.540000, -0.055000, 0.400000,1.300000, -2.900000, 0.040000], a=0.1, v=0.500000 )
movel( p[-0.540000, -0.065000, 0.400000,1.300000, -2.900000, 0.040000], a=0.1, v=0.500000 )
movel( p[-0.540000, -0.075000, 0.400000,1.300000, -2.900000, 0.040000], a=0.1, v=0.500000 )
movel( p[-0.540000, -0.085000, 0.400000,1.300000, -2.900000, 0.040000], a=0.1, v=0.500000 )
movel( p[-0.540000, -0.095000, 0.400000,1.300000, -2.900000, 0.040000], a=0.1, v=0.500000 )
movel( p[-0.540000, -0.105000, 0.400000,1.300000, -2.900000, 0.040000], a=0.1, v=0.500000 )
movel( p[-0.540000, -0.115000, 0.400000,1.300000, -2.900000, 0.040000], a=0.1, v=0.500000 )
movel( p[-0.540000, -0.125000, 0.400000,1.300000, -2.900000, 0.040000], a=0.1, v=0.500000 )
movel( p[-0.540000, -0.135000, 0.400000,1.300000, -2.900000, 0.040000], a=0.1, v=0.500000 )
movel( p[-0.540000, -0.145000, 0.400000,1.300000, -2.900000, 0.040000], a=0.1, v=0.500000 )
movel( p[-0.540000, -0.155000, 0.400000,1.300000, -2.900000, 0.040000], a=0.1, v=0.500000 )
movel( p[-0.540000, -0.165000, 0.400000,1.300000, -2.900000, 0.040000], a=0.1, v=0.500000 )
movel( p[-0.540000, -0.175000, 0.400000,1.300000, -2.900000, 0.040000], a=0.1, v=0.500000 )
movel( p[-0.540000, -0.185000, 0.400000,1.300000, -2.900000, 0.040000], a=0.1, v=0.500000 )
movel( p[-0.540000, -0.195000, 0.400000,1.300000, -2.900000, 0.040000], a=0.1, v=0.500000 )
movel( p[-0.540000, -0.205000, 0.400000,1.300000, -2.900000, 0.040000], a=0.1, v=0.500000 )
movel( p[-0.540000, -0.215000, 0.400000,1.300000, -2.900000, 0.040000], a=0.1, v=0.500000 )
movel( p[-0.540000, -0.225000, 0.400000,1.300000, -2.900000, 0.040000], a=0.1, v=0.500000 )
movel( p[-0.540000, -0.235000, 0.400000,1.300000, -2.900000, 0.040000], a=0.1, v=0.500000 )
movel( p[-0.550000, -0.235000, 0.400000,1.300000, -2.900000, 0.040000], a=0.1, v=0.500000 )
movel( p[-0.560000, -0.235000, 0.400000,1.300000, -2.900000, 0.040000], a=0.1, v=0.500000 )
movel( p[-0.560000, -0.225000, 0.400000,1.300000, -2.900000, 0.040000], a=0.1, v=0.500000 )
movel( p[-0.570000, -0.225000, 0.400000,1.300000, -2.900000, 0.040000], a=0.1, v=0.500000 )
movel( p[-0.570000, -0.215000, 0.400000,1.300000, -2.900000, 0.040000], a=0.1, v=0.500000 )
movel( p[-0.560000, -0.215000, 0.400000,1.300000, -2.900000, 0.040000], a=0.1, v=0.500000 )
movel( p[-0.550000, -0.215000, 0.400000,1.300000, -2.900000, 0.040000], a=0.1, v=0.500000 )
movel( p[-0.540000, -0.215000, 0.400000,1.300000, -2.900000, 0.040000], a=0.1, v=0.500000 )
movel( p[-0.540000, -0.205000, 0.400000,1.300000, -2.900000, 0.040000], a=0.1, v=0.500000 )
movel( p[-0.540000, -0.195000, 0.400000,1.300000, -2.900000, 0.040000], a=0.1, v=0.500000 )
movel( p[-0.540000, -0.185000, 0.400000,1.300000, -2.900000, 0.040000], a=0.1, v=0.500000 )
movel( p[-0.540000, -0.175000, 0.400000,1.300000, -2.900000, 0.040000], a=0.1, v=0.500000 )
movel( p[-0.550000, -0.175000, 0.400000,1.300000, -2.900000, 0.040000], a=0.1, v=0.500000 )
movel( p[-0.550000, -0.165000, 0.400000,1.300000, -2.900000, 0.040000], a=0.1, v=0.500000 )
movel( p[-0.560000, -0.165000, 0.400000,1.300000, -2.900000, 0.040000], a=0.1, v=0.500000 )
movel( p[-0.560000, -0.175000, 0.400000,1.300000, -2.900000, 0.040000], a=0.1, v=0.500000 )
movel( p[-0.560000, -0.185000, 0.400000,1.300000, -2.900000, 0.040000], a=0.1, v=0.500000 )
movel( p[-0.560000, -0.195000, 0.400000,1.300000, -2.900000, 0.040000], a=0.1, v=0.500000 )
movel( p[-0.560000, -0.205000, 0.400000,1.300000, -2.900000, 0.040000], a=0.1, v=0.500000 )
movel( p[-0.560000, -0.215000, 0.400000,1.300000, -2.900000, 0.040000], a=0.1, v=0.500000 )
movel( p[-0.560000, -0.225000, 0.400000,1.300000, -2.900000, 0.040000], a=0.1, v=0.500000 )
movel( p[-0.560000, -0.235000, 0.400000,1.300000, -2.900000, 0.040000], a=0.1, v=0.500000 )
movel( p[-0.550000, -0.235000, 0.400000,1.300000, -2.900000, 0.040000], a=0.1, v=0.500000 )
movel( p[-0.540000, -0.235000, 0.400000,1.300000, -2.900000, 0.040000], a=0.1, v=0.500000 )
movel( p[-0.540000, -0.225000, 0.400000,1.300000, -2.900000, 0.040000], a=0.1, v=0.500000 )
movel( p[-0.540000, -0.215000, 0.400000,1.300000, -2.900000, 0.040000], a=0.1, v=0.500000 )
movel( p[-0.540000, -0.205000, 0.400000,1.300000, -2.900000, 0.040000], a=0.1, v=0.500000 )
movel( p[-0.550000, -0.205000, 0.400000,1.300000, -2.900000, 0.040000], a=0.1, v=0.500000 )
movel( p[-0.560000, -0.205000, 0.400000,1.300000, -2.900000, 0.040000], a=0.1, v=0.500000 )
movel( p[-0.560000, -0.215000, 0.400000,1.300000, -2.900000, 0.040000], a=0.1, v=0.500000 )
movel( p[-0.570000, -0.215000, 0.400000,1.300000, -2.900000, 0.040000], a=0.1, v=0.500000 )
movel( p[-0.570000, -0.225000, 0.400000,1.300000, -2.900000, 0.040000], a=0.1, v=0.500000 )
movel( p[-0.560000, -0.225000, 0.400000,1.300000, -2.900000, 0.040000], a=0.1, v=0.500000 )
movel( p[-0.550000, -0.225000, 0.400000,1.300000, -2.900000, 0.040000], a=0.1, v=0.500000 )
movel( p[-0.540000, -0.225000, 0.400000,1.300000, -2.900000, 0.040000], a=0.1, v=0.500000 )
movel( p[-0.540000, -0.215000, 0.400000,1.300000, -2.900000, 0.040000], a=0.1, v=0.500000 )
movel( p[-0.540000, -0.205000, 0.400000,1.300000, -2.900000, 0.040000], a=0.1, v=0.500000 )
movel( p[-0.540000, -0.195000, 0.400000,1.300000, -2.900000, 0.040000], a=0.1, v=0.500000 )
movel( p[-0.540000, -0.185000, 0.400000,1.300000, -2.900000, 0.040000], a=0.1, v=0.500000 )
movel( p[-0.540000, -0.175000, 0.400000,1.300000, -2.900000, 0.040000], a=0.1, v=0.500000 )
movel( p[-0.540000, -0.165000, 0.400000,1.300000, -2.900000, 0.040000], a=0.1, v=0.500000 )
movel( p[-0.550000, -0.165000, 0.400000,1.300000, -2.900000, 0.040000], a=0.1, v=0.500000 )
movel( p[-0.550000, -0.155000, 0.400000,1.300000, -2.900000, 0.040000], a=0.1, v=0.500000 )
movel( p[-0.560000, -0.155000, 0.400000,1.300000, -2.900000, 0.040000], a=0.1, v=0.500000 )
movel( p[-0.560000, -0.145000, 0.400000,1.300000, -2.900000, 0.040000], a=0.1, v=0.500000 )
movel( p[-0.570000, -0.145000, 0.400000,1.300000, -2.900000, 0.040000], a=0.1, v=0.500000 )
movel( p[-0.570000, -0.135000, 0.400000,1.300000, -2.900000, 0.040000], a=0.1, v=0.500000 )
movel( p[-0.570000, -0.125000, 0.400000,1.300000, -2.900000, 0.040000], a=0.1, v=0.500000 )
movel( p[-0.570000, -0.115000, 0.400000,1.300000, -2.900000, 0.040000], a=0.1, v=0.500000 )
movel( p[-0.560000, -0.115000, 0.400000,1.300000, -2.900000, 0.040000], a=0.1, v=0.500000 )
movel( p[-0.550000, -0.115000, 0.400000,1.300000, -2.900000, 0.040000], a=0.1, v=0.500000 )
movel( p[-0.550000, -0.125000, 0.400000,1.300000, -2.900000, 0.040000], a=0.1, v=0.500000 )
movel( p[-0.540000, -0.125000, 0.400000,1.300000, -2.900000, 0.040000], a=0.1, v=0.500000 )
movel( p[-0.540000, -0.135000, 0.400000,1.300000, -2.900000, 0.040000], a=0.1, v=0.500000 )
movel( p[-0.550000, -0.135000, 0.400000,1.300000, -2.900000, 0.040000], a=0.1, v=0.500000 )
movel( p[-0.560000, -0.135000, 0.400000,1.300000, -2.900000, 0.040000], a=0.1, v=0.500000 )
