movel( p[-0.610000, 0.045000, 0.400000,1.300000, -2.900000, 0.040000], a=0.1, v=0.500000 )
movel( p[-0.610000, 0.055000, 0.400000,1.300000, -2.900000, 0.040000], a=0.1, v=0.500000 )
movel( p[-0.620000, 0.055000, 0.400000,1.300000, -2.900000, 0.040000], a=0.1, v=0.500000 )
movel( p[-0.620000, 0.065000, 0.400000,1.300000, -2.900000, 0.040000], a=0.1, v=0.500000 )
movel( p[-0.630000, 0.065000, 0.400000,1.300000, -2.900000, 0.040000], a=0.1, v=0.500000 )
movel( p[-0.630000, 0.075000, 0.400000,1.300000, -2.900000, 0.040000], a=0.1, v=0.500000 )
movel( p[-0.620000, 0.075000, 0.400000,1.300000, -2.900000, 0.040000], a=0.1, v=0.500000 )
movel( p[-0.620000, 0.085000, 0.400000,1.300000, -2.900000, 0.040000], a=0.1, v=0.500000 )
movel( p[-0.610000, 0.085000, 0.400000,1.300000, -2.900000, 0.040000], a=0.1, v=0.500000 )
movel( p[-0.610000, 0.095000, 0.400000,1.300000, -2.900000, 0.040000], a=0.1, v=0.500000 )
movel( p[-0.600000, 0.095000, 0.400000,1.300000, -2.900000, 0.040000], a=0.1, v=0.500000 )
movel( p[-0.600000, 0.105000, 0.400000,1.300000, -2.900000, 0.040000], a=0.1, v=0.500000 )
movel( p[-0.590000, 0.105000, 0.400000,1.300000, -2.900000, 0.040000], a=0.1, v=0.500000 )
movel( p[-0.590000, 0.115000, 0.400000,1.300000, -2.900000, 0.040000], a=0.1, v=0.500000 )
movel( p[-0.580000, 0.115000, 0.400000,1.300000, -2.900000, 0.040000], a=0.1, v=0.500000 )
movel( p[-0.580000, 0.105000, 0.400000,1.300000, -2.900000, 0.040000], a=0.1, v=0.500000 )
movel( p[-0.570000, 0.105000, 0.400000,1.300000, -2.900000, 0.040000], a=0.1, v=0.500000 )
movel( p[-0.570000, 0.095000, 0.400000,1.300000, -2.900000, 0.040000], a=0.1, v=0.500000 )
movel( p[-0.560000, 0.095000, 0.400000,1.300000, -2.900000, 0.040000], a=0.1, v=0.500000 )
movel( p[-0.560000, 0.085000, 0.400000,1.300000, -2.900000, 0.040000], a=0.1, v=0.500000 )
movel( p[-0.550000, 0.085000, 0.400000,1.300000, -2.900000, 0.040000], a=0.1, v=0.500000 )
movel( p[-0.550000, 0.095000, 0.400000,1.300000, -2.900000, 0.040000], a=0.1, v=0.500000 )
movel( p[-0.540000, 0.095000, 0.400000,1.300000, -2.900000, 0.040000], a=0.1, v=0.500000 )
movel( p[-0.540000, 0.105000, 0.400000,1.300000, -2.900000, 0.040000], a=0.1, v=0.500000 )
movel( p[-0.530000, 0.105000, 0.400000,1.300000, -2.900000, 0.040000], a=0.1, v=0.500000 )
movel( p[-0.530000, 0.115000, 0.400000,1.300000, -2.900000, 0.040000], a=0.1, v=0.500000 )
movel( p[-0.520000, 0.115000, 0.400000,1.300000, -2.900000, 0.040000], a=0.1, v=0.500000 )
movel( p[-0.520000, 0.105000, 0.400000,1.300000, -2.900000, 0.040000], a=0.1, v=0.500000 )
movel( p[-0.520000, 0.095000, 0.400000,1.300000, -2.900000, 0.040000], a=0.1, v=0.500000 )
